packages/icons/svgs/duotone/Source=view.svg

<svg width="24" height="24" viewBox="0 0 24 24" fill="none" xmlns="http://www.w3.org/2000/svg">
<path fill-rule="evenodd" clip-rule="evenodd" d="M2.19134 11.3918C2.06703 11.5702 2.00037 11.7825 2.00037 12C2.00037 12.2175 2.06703 12.4298 2.19137 12.6082C2.94777 13.6789 4.24462 15.2976 5.95183 16.6407C7.66229 17.9863 9.71283 19 12 19C14.2872 19 16.3378 17.9863 18.0482 16.6407C19.7554 15.2976 21.0523 13.6789 21.8087 12.6083C21.933 12.4298 21.9997 12.2175 21.9997 12C21.9997 11.7825 21.933 11.5702 21.8087 11.3918C21.0523 10.3212 19.7555 8.70238 18.0482 7.35932C16.3378 6.01372 14.2872 5 12 5C9.71283 5 7.66229 6.01372 5.95183 7.35932C4.2446 8.70238 2.94775 10.3212 2.19134 11.3918ZM4.71524 5.78743C6.62978 4.28128 9.10624 3 12 3C14.8938 3 17.3703 4.28128 19.2848 5.78743C21.2015 7.29522 22.627 9.08366 23.4438 10.2401L23.4465 10.2438C23.8066 10.7587 23.9997 11.3717 23.9997 12C23.9997 12.6283 23.8066 13.2413 23.4465 13.7562L23.4438 13.7599C22.627 14.9163 21.2015 16.7048 19.2848 18.2126C17.3703 19.7187 14.8938 21 12 21C9.10624 21 6.62978 19.7187 4.71524 18.2126C2.79861 16.7048 1.37305 14.9163 0.556238 13.7599L0.55358 13.7562L0.553589 13.7562C0.193496 13.2413 0.000366211 12.6283 0.000366211 12C0.000366211 11.3717 0.193496 10.7587 0.553589 10.2438L0.55623 10.2401L0.556238 10.2401C1.37305 9.08366 2.79861 7.29522 4.71524 5.78743Z" fill="black" style="fill:black;fill-opacity:1;"/>
<path opacity="0.5" fill-rule="evenodd" clip-rule="evenodd" d="M12 9C10.3431 9 9 10.3431 9 12C9 13.6569 10.3431 15 12 15C13.6569 15 15 13.6569 15 12C15 10.3431 13.6569 9 12 9ZM7 12C7 9.23858 9.23858 7 12 7C14.7614 7 17 9.23858 17 12C17 14.7614 14.7614 17 12 17C9.23858 17 7 14.7614 7 12Z" fill="black" style="fill:black;fill-opacity:1;"/>
</svg>

<svg xmlns="http://www.w3.org/2000/svg" width="24" height="24" viewBox="0 0 24 24"><path fill-rule="evenodd" d="M2.191 11.392a1.06 1.06 0 0 0 0 1.216c.757 1.07 2.054 2.69 3.76 4.033C7.663 17.986 9.714 19 12 19s4.338-1.014 6.048-2.36c1.707-1.342 3.004-2.961 3.76-4.032a1.065 1.065 0 0 0 0-1.216c-.756-1.07-2.052-2.69-3.76-4.033C16.338 6.014 14.288 5 12 5 9.713 5 7.662 6.014 5.952 7.36c-1.707 1.342-3.004 2.961-3.76 4.032m2.524-5.605C6.63 4.281 9.106 3 12 3s5.37 1.281 7.285 2.787c1.916 1.508 3.342 3.297 4.159 4.453l.003.004a3.06 3.06 0 0 1 0 3.512l-.003.004c-.817 1.156-2.242 2.945-4.16 4.453C17.37 19.719 14.895 21 12 21s-5.37-1.281-7.285-2.787C2.8 16.705 1.373 14.916.556 13.76l-.002-.004a3.06 3.06 0 0 1 0-3.512l.002-.004c.817-1.156 2.243-2.945 4.16-4.453" clip-rule="evenodd"/><path fill-rule="evenodd" d="M12 9a3 3 0 1 0 0 6 3 3 0 0 0 0-6m-5 3a5 5 0 1 1 10 0 5 5 0 0 1-10 0" clip-rule="evenodd" opacity=".55"/></svg>
